src/lib/packages/icons/src/assets/line/grid-square-plus.svg

<svg xmlns="http://www.w3.org/2000/svg" width="24" height="24" fill="none"><path fill="currentColor" d="M20.75 17a.75.75 0 0 1-.75.75h-2.25V20a.75.75 0 0 1-1.5 0v-2.25H14a.75.75 0 0 1 0-1.5h2.25V14a.75.75 0 0 1 1.5 0v2.25H20a.75.75 0 0 1 .75.75Zm0-11.5v3c0 1.409-.841 2.25-2.25 2.25h-3c-1.409 0-2.25-.841-2.25-2.25v-3c0-1.409.841-2.25 2.25-2.25h3c1.409 0 2.25.841 2.25 2.25Zm-1.5 0c0-.589-.161-.75-.75-.75h-3c-.589 0-.75.161-.75.75v3c0 .589.161.75.75.75h3c.589 0 .75-.161.75-.75v-3Zm-8.5 0v3c0 1.409-.841 2.25-2.25 2.25h-3c-1.409 0-2.25-.841-2.25-2.25v-3c0-1.409.841-2.25 2.25-2.25h3c1.409 0 2.25.841 2.25 2.25Zm-1.5 0c0-.589-.161-.75-.75-.75h-3c-.589 0-.75.161-.75.75v3c0 .589.161.75.75.75h3c.589 0 .75-.161.75-.75v-3Zm1.5 10v3c0 1.409-.841 2.25-2.25 2.25h-3c-1.409 0-2.25-.841-2.25-2.25v-3c0-1.409.841-2.25 2.25-2.25h3c1.409 0 2.25.841 2.25 2.25Zm-1.5 0c0-.589-.161-.75-.75-.75h-3c-.589 0-.75.161-.75.75v3c0 .589.161.75.75.75h3c.589 0 .75-.161.75-.75v-3Z"/></svg>

<svg width="24" height="24" viewBox="0 0 24 24" fill="none" xmlns="http://www.w3.org/2000/svg">
<path d="M20.75 17C20.75 17.414 20.414 17.75 20 17.75H17.75V20C17.75 20.414 17.414 20.75 17 20.75C16.586 20.75 16.25 20.414 16.25 20V17.75H14C13.586 17.75 13.25 17.414 13.25 17C13.25 16.586 13.586 16.25 14 16.25H16.25V14C16.25 13.586 16.586 13.25 17 13.25C17.414 13.25 17.75 13.586 17.75 14V16.25H20C20.414 16.25 20.75 16.586 20.75 17ZM20.75 5.5V8.5C20.75 9.909 19.909 10.75 18.5 10.75H15.5C14.091 10.75 13.25 9.909 13.25 8.5V5.5C13.25 4.091 14.091 3.25 15.5 3.25H18.5C19.909 3.25 20.75 4.091 20.75 5.5ZM19.25 5.5C19.25 4.911 19.089 4.75 18.5 4.75H15.5C14.911 4.75 14.75 4.911 14.75 5.5V8.5C14.75 9.089 14.911 9.25 15.5 9.25H18.5C19.089 9.25 19.25 9.089 19.25 8.5V5.5ZM10.75 5.5V8.5C10.75 9.909 9.909 10.75 8.5 10.75H5.5C4.091 10.75 3.25 9.909 3.25 8.5V5.5C3.25 4.091 4.091 3.25 5.5 3.25H8.5C9.909 3.25 10.75 4.091 10.75 5.5ZM9.25 5.5C9.25 4.911 9.089 4.75 8.5 4.75H5.5C4.911 4.75 4.75 4.911 4.75 5.5V8.5C4.75 9.089 4.911 9.25 5.5 9.25H8.5C9.089 9.25 9.25 9.089 9.25 8.5V5.5ZM10.75 15.5V18.5C10.75 19.909 9.909 20.75 8.5 20.75H5.5C4.091 20.75 3.25 19.909 3.25 18.5V15.5C3.25 14.091 4.091 13.25 5.5 13.25H8.5C9.909 13.25 10.75 14.091 10.75 15.5ZM9.25 15.5C9.25 14.911 9.089 14.75 8.5 14.75H5.5C4.911 14.75 4.75 14.911 4.75 15.5V18.5C4.75 19.089 4.911 19.25 5.5 19.25H8.5C9.089 19.25 9.25 19.089 9.25 18.5V15.5Z" fill="currentColor"/>
</svg>
